X: 1456
T:Norwegian Waltz
R:Waltz
M:3/4
L:1/8
S:Graham Townsend, slightly simplified in places
Z:<http://tunes.nhcountrydance.com>.
K:G
dc\
| "G" B2D2G2| "G7" B3 cdB| "C" c2E2G2| "Am" c6 |
  "D7" D2F2A2| d2e2f2 |1 "G"g3 fge |"D7"d4 :|2 "G"g3 fga| g4 |]
[|ga\
| "G" b2g2>g2| "G7" g3BAB| "C" c2[c2A2]>[c2A2]| "Am" e6|
  "D"d2f2a2  |    d2f2a2 | d3 edc | "G" B4ga |
  "G" b2g2>g2| "G7" g3BAB| "C" c2[c2e2]>[c2e2]| "Am" e6|
  "D7"d2f2a2 |  d2f2a2   | d2e2f2 | "G" g4 |]

